X: 184
T:Lord Moira's Welcome To Scotland. HSJJ.185
M:4/4
L:1/8
Q:120
S:HSJ Jackson,Wyresdale,Lancs.1823
R:Strathspey
O:England
A:Lancashire
H:1823
Z:vmp.Chris Partington
K:G
G<GG<G BG FD|G<GG<G Bgf>ag4:|!
|b>ga>gf2d2|e<eg>e d>cBG|g<gb>g a>gfd|eg f/g/a/f/g2ga/b/|!
c'>ab>g a>geg|d>Bg>B c/B/A/G/ A>B|G<GG<G c<ee2|dg f/g/a/f/g2 |]
